Gurmukhi/0A2B.svg

<svg enable-background="new 0 0 336 592" viewBox="0 0 336 592" xmlns="http://www.w3.org/2000/svg"><path d="m143.119659 252.757874c17.600754-3.27829 34.960923-1.785737 52.248017-2.006516 14.376297-.183609 14.379135-.034531 14.396103-14.316467.00534-4.498856-.284668-9.021591.084716-13.490082.396317-4.794159-1.656127-5.879105-6.06694-5.863022-37.656631.137467-75.314972-.049057-112.969925.238999-5.652725.043228-8.628669-1.608872-9.973366-6.991517-.761787-3.049408-2.212829-5.920929-3.24765-8.90921-1.432563-4.136871-.275261-5.858047 4.170838-6.250091 1.489502-.131363 2.99691-.078415 4.496132-.078156 57.318786.009781 114.637588.019653 171.956375.039093 12.086273.00409 12.086273.021103 16.486175 11.250351 3.937134 10.048233 3.455139 10.752457-7.304199 10.755249-8.997681.002335-17.999161.176758-26.991394-.039657-4.202499-.10112-5.440887 1.519149-5.382111 5.568069.191025 13.160461.107483 26.325577.058228 39.488617-.028931 7.729919-4.332245 11.997589-11.945511 12.012421-19.328171.037628-38.659943-.14328-57.9832.18222-11.736832.197693-22.922974 2.89859-31.45903 11.721954-10.353859 10.702362-10.961876 23.748047-7.843788 37.336548 1.798866 7.839417 5.228294 14.974976 10.07827 20.726044 4.230148-3.776917 8.222931-7.227966 12.089386-10.815186 12.193008-11.312347 25.936599-19.839935 42.459579-23.050201 23.734299-4.611298 46.761902 4.558441 55.429382 27.210388 8.976105 23.458618-4.604904 48.372193-29.583862 53.726349-35.438309 7.596069-64.953415-4.161438-89.804909-29.126282-14.207382-14.272155-23.384475-31.362701-26.064758-51.667907-3.699234-28.024598 9.682999-48.535401 36.935341-56.190201 1.761734-.494843 3.537918-.938339 5.732101-1.461807m31.51175 88.381286c-5.973526 4.021301-11.178894 8.904755-16.168015 14.073975-2.353821 2.438751-2.153656 3.964081.601654 5.887573 11.481384 8.015381 24.047241 11.749176 38.112107 10.764648 10.096359-.706695 19.42601-3.101318 26.8096-10.417785 8.713456-8.634308 7.583435-21.525574-2.449905-27.898865-5.196243-3.30069-11.003723-4.479462-17.196533-3.866791-10.717209 1.060303-20.209687 5.260468-29.708908 11.457245z"/></svg>

<svg version="1.1" id="Layer_1" xmlns="http://www.w3.org/2000/svg" xmlns:xlink="http://www.w3.org/1999/xlink" x="0px" y="0px"
	 width="100%" viewBox="0 0 336 592" enable-background="new 0 0 336 592" xml:space="preserve">
<path fill="#000000" opacity="1.000000" stroke="none" 
	d="
M143.119659,252.757874 
	C160.720413,249.479584 178.080582,250.972137 195.367676,250.751358 
	C209.743973,250.567749 209.746811,250.716827 209.763779,236.434891 
	C209.769119,231.936035 209.479111,227.413300 209.848495,222.944809 
	C210.244812,218.150650 208.192368,217.065704 203.781555,217.081787 
	C166.124924,217.219254 128.466583,217.032730 90.811630,217.320786 
	C85.158905,217.364014 82.182961,215.711914 80.838264,210.329269 
	C80.076477,207.279861 78.625435,204.408340 77.590614,201.420059 
	C76.158051,197.283188 77.315353,195.562012 81.761452,195.169968 
	C83.250954,195.038605 84.758362,195.091553 86.257584,195.091812 
	C143.576370,195.101593 200.895172,195.111465 258.213959,195.130905 
	C270.300232,195.134995 270.300232,195.152008 274.700134,206.381256 
	C278.637268,216.429489 278.155273,217.133713 267.395935,217.136505 
	C258.398254,217.138840 249.396774,217.313263 240.404541,217.096848 
	C236.202042,216.995728 234.963654,218.615997 235.022430,222.664917 
	C235.213455,235.825378 235.129913,248.990494 235.080658,262.153534 
	C235.051727,269.883453 230.748413,274.151123 223.135147,274.165955 
	C203.806976,274.203583 184.475204,274.022675 165.151947,274.348175 
	C153.415115,274.545868 142.228973,277.246765 133.692917,286.070129 
	C123.339058,296.772491 122.731041,309.818176 125.849129,323.406677 
	C127.647995,331.246094 131.077423,338.381653 135.927399,344.132721 
	C140.157547,340.355804 144.150330,336.904755 148.016785,333.317535 
	C160.209793,322.005188 173.953384,313.477600 190.476364,310.267334 
	C214.210663,305.656036 237.238266,314.825775 245.905746,337.477722 
	C254.881851,360.936340 241.300842,385.849915 216.321884,391.204071 
	C180.883575,398.800140 151.368469,387.042633 126.516975,362.077789 
	C112.309593,347.805634 103.132500,330.715088 100.452217,310.409882 
	C96.752983,282.385284 110.135216,261.874481 137.387558,254.219681 
	C139.149292,253.724838 140.925476,253.281342 143.119659,252.757874 
M174.631409,341.139160 
	C168.657883,345.160461 163.452515,350.043915 158.463394,355.213135 
	C156.109573,357.651886 156.309738,359.177216 159.065048,361.100708 
	C170.546432,369.116089 183.112289,372.849884 197.177155,371.865356 
	C207.273514,371.158661 216.603165,368.764038 223.986755,361.447571 
	C232.700211,352.813263 231.570190,339.921997 221.536850,333.548706 
	C216.340607,330.248016 210.533127,329.069244 204.340317,329.681915 
	C193.623108,330.742218 184.130630,334.942383 174.631409,341.139160 
z"/>
</svg>
